X:92
T:T009B- The Merry Beggers [Old Hewson the Cobbler]
S:Oswald's 'Caledonian Pocket Comp.', bk 9, c 1758
Q:1/4=90
L:1/8
M:9/8
K:Gm
D|GAG BAG ^FAF|GAG A^FA c2A|GAG BAG FGA|f=ed cAF G2||\
d|g2a bag fd=e|f2g aga f2d|g2a bag fdf|cAF cAF G2|]

